X:1
T:Title
%%score { ( 1 4 6 ) | ( 2 3 5 ) }
L:1/8
Q:1/4=100
M:4/4
K:D
V:1 treble nm="Grand Piano"
V:4 treble 
V:6 treble 
V:2 bass 
V:3 bass 
V:5 bass 
V:1
 [F,A,D]2 [A,DF]>B [DFA]2 [F,A,D]2 | [A,DF]2 [A,DF]2 [A,DF]4 | [F,A,D]2 [A,DF]>B [DFA]2 [F,A,D]2 | %3
w: Adam~Geibel * * * *|||
 [A,CG]2 [A,CG]2 [A,CG]4 | [CE][=C^D][^CE][=DF] [EG]2 [Gc]2 | [FB]2 F2 F2 =F2 | E2 CD EF^GA | %7
w: ||||
 c2 B2 [CA]4 | c2 A2 d2 A2 | [Ge]2 [GA]2 [Ff]4 | e2 dB [DFA]2 [DFd]2 | %11
w: ||||
[M:7/8] [A,CF]2[K:bass] [G,CE]2 [F,D]3 |[M:1/4][Q:1/4=80] z2 |[M:3/4][K:treble] [DB]3 ^A [DB]=c | %14
w: |||
 [DB]2 [=CA]2 D2 | [=CA]3 ^G [CA]B | [=CA]>G D2 D2 | [DB]3 ^A [DB]=c | B2 A2 [DA]2 | %19
w: |||||
 [CB]3 [CA] [CG]E |[M:2/4] B>A D2 |[M:1/4] D2 |[M:3/4] B4 z2 | B2 A2 D2 | A4 z2 | %25
w: ||||||
 [=CA]>[B,G] [B,D]2 D2 | B4 z2 | d2 =c2 BA | G3 F GA |[M:2/4] A>G G2 |[M:1/4] G2 | %31
w: ||||||
[M:3/4] GG G2 F2 | F4 B,B, | [B,GB]B B2 [^A,G^A]>[A,A] | [EA]4 z A | AA A2 [DGd]>[Dd] | %36
w: |||||
[M:5/8] [Dd]2 c3[Q:1/4=100] |[M:1/4] A2 |[M:3/4] [Fd]2 [DF]2 [=FB]2 | A4 z2 | [CA]>[CB] [CA]2 E2 | %41
w: |||||
 A>B A2 [GA]2 | [Fd]>[Fd] [DF]2 [=FB]2 | [FA]>[FB] [FA]2 [FA][=FB] | c2 E2 B2 | [A,CA]4 z2 | %46
w: |||||
 A4 z2 | d2 c2 B2 | c2 B2 A2 | B2 A2 [DF]2 | A4 A2 | [DFA]2 F2 D2 | [CE]6 | [DF]4 A2 | A4 c2 | %55
w: |||||||||
 d2 c2 B2 | c2 B2 A2 | B2 A2 [DFA]2 | B2 B2 B2 | [^Gd]2 [Gd]2 [Gc]2 | [Ge]6 | %61
w: ||||||
[M:9/8] [CGA]8- [CGA] |[M:4/4] [F,D]2 [A,DF]2 [A,EA]2 [F,D]2 | [G,DG]2 [DB]2 B2 A2 | z4 G2 z2 | %65
w: ||||
 [DF]2 E2 z4 | [DG]2 A2 B2 A2 | G2 F2 z4 | [A,D]-[A,-D-G] [A,-DA]2 [A,DG]2 D-[B,DG] | z2 E2 z4 | %70
w: |||||
 [Ec]2 [Ed]2 [Ee]2 [CEA]2 | [DAd]2 [Ge]2 [Ff]4 | cd .e2 .[Ad]2 [EAc][FBd] | [Ac]2 B2 [CA]4 | %74
w: ||||
 [CA]BcA d2 [A,DF]2 | [G,DG]2 [DB]2 B2 A2 | [Fd][Gc][Ad][DFA] G-[EGc][Ad][Ge] | %77
w: |||
 [Fd]2 .[Ec]2 [Fd]4 | D3 D D2 D2 |[M:6/4] d6 z6 |] %80
w: |||
V:2
 [D,,D,]2 [A,,,A,,]2 [D,,D,]2 [A,,,A,,]2 | [D,,D,]2 [A,,,A,,]2 [D,,D,]2 [A,,,A,,]2 | %2
 [D,,D,]2 [A,,,A,,]2 [D,,D,]2 [A,,,A,,]2 | [E,,E,]2 [A,,,A,,]2 [E,,E,]2 [A,,,A,,]2 | %4
 [A,,A,]2 [A,,A,]2 [A,,A,]2 [A,,A,]2 | z4 A,4 | [E,A,C]2 C,D, E,F,^G,A, | %7
 [E,A,E]2 [E,^G,D]2 [A,,A,]4 | [A,E]2 [G,A,C]2 [F,A,D]2 [F,A,D]2 | [E,C]2 [A,C]2 [D,D]4 | %10
 [G,B,G]2 [G,G]-[G,DG] A,2 A,2 |[M:7/8][K:bass] A,,2 A,,2 D,3 |[M:1/4] D2 |[M:3/4] G,,D, z C z E | %14
 D,,D, F,2 D,2 | D,,D, z B, z D | .G,,>B, [G,B,]2 D,2 | G,,D, z C z E | [A,,F,]4 [A,,F,]2 | %19
 [A,,G,]4 A,,-[A,,G,C] |[M:2/4] =C>C C2 |[M:1/4] z2 | %22
[M:3/4] z [G,,G,] [G,,G,][G,,G,] [G,,G,][G,,G,] | [D,D]2- [D,F,D]2 z2 | %24
 z [D,F,] [D,F,][D,=F,B,] [D,^F,=C][D,F,D] | [G,,G,]>[G,,G,] [G,,G,]2 z2 | %26
 z G, G,[G,D] [E,^G,D][E,G,E] | [A,,A,]4 [B,,^G,][=C,A,] | [D,B,D]3 [D,A,D] [D,B,D][D,=CD] | %29
[M:2/4] [G,=CD]>[G,B,D] [G,B,D]2 |[M:1/4] G,2 |[M:3/4] .G,2 z2 z2 | [B,,^D,F,B,]4 z2 | %33
 z[K:treble] [B,G] B,2[K:bass] [D,G,]2 | [=C,G,A,]4 z A, | A,A, A,2 [B,,D,G,]2 |[M:5/8] z2 C3 | %37
[M:1/4] A,2 |[M:3/4] [D,A,]2 [D,A,]2 [D,^G,]2 | z2 G,2 [D,F,D]2 | %40
 [A,,E,]>[A,,E,] [A,,E,]2 [G,A,C]2 | [F,A,D]>[F,A,D] [F,A,D]2 [E,C]2 | %42
 [D,D]>[D,D] [D,A,]2 [D,^G,]2 | [D,A,]>[D,A,] [D,A,]2 [D,A,][D,A,] | [E,A,E]2 [E,A,C]2 [E,^G,D]2 | %45
 A,,4 A2 | z2 A,2[K:treble][K:bass] z2 | D,2 A,2 A,,2 | E,2 A,2 A,,2 | D,2 A,2 A,,2 | %50
 z2 A,2[K:treble][K:bass] z2 | D,2 A,2 A,,2 | E,2 A,2 A,,2 | D,2 A,2 A,,2 | %54
 z2 A,2[K:treble][K:bass] z2 | D,2 A,2 A,,2 | E,2 A,2 A,,2 | D,2 A,2 [D,F,A,]2 | %58
 [G,B,DG]2 [G,B,DG]2 [G,B,DG]2 | [E,B,E]2 [E,B,E]2 [E,B,E]2 | [A,C]6 | %61
[M:9/8] [A,,E,A,]8- [A,,E,A,] |[M:4/4] D,2 D,2 C,2 D,2 | z4 [D,D]4 | [A,-D]4 A,2 z2 | %65
 z2 C2 [D,F,]4 | [B,,G,]2 [D,F,D]2 [G,D]2 [F,A,D]2 | .[E,D]2 .[F,D]2 z2 C2 | D,E, F,2 z CD,G,, | %69
 z2 C2 [D,F,]4 | A,3 ^G, C,2 A,=G, | F,2 [E,C]2 [D,D]4 | A,B,[K:treble] z A z ^GA,[K:bass]D, | %73
 z2[K:treble] ^G2 z4 | z DEC[K:bass] [F,A,D]2 D,C, | z4 [D,D]4 | A,4 z4 | z2 z G [D,A,]4 | %78
 D,3 D, D,2 D,2 |[M:6/4][K:treble] [B,G]3 ^A,3[K:bass] [D,=A,]6 |] %80
V:3
 x8 | x8 | x8 | x8 | x8 | [D,A,]2 [D,A,D]2 [D,D]2 [^D,=C]2 | x8 | x8 | x8 | x8 | z2 .B,2 z4 | %11
[M:7/8][K:bass] x7 |[M:1/4] x2 |[M:3/4] z2 G,2 D,2 | x6 | z2 F,2 D,2 | z D, z2 z2 | z2 G,2 D,2 | %18
 x6 | z2 z2 .E,2 |[M:2/4] [D,F,]4 |[M:1/4] x2 |[M:3/4] x6 | G,2 z2 z2 | x6 | x6 | x6 | x6 | x6 | %29
[M:2/4] x4 |[M:1/4] x2 |[M:3/4] [E,B,]-[E,-G,B,-] [E,G,B,]2 .[=C,E,F,A,]2 | x6 | %33
 [E,G,]4[K:treble][K:bass] z2 | x6 | [=C,G,]4 z2 |[M:5/8] [A,,E,A,]-[A,,E,A,]- [A,,E,A,]3 | %37
[M:1/4] x2 |[M:3/4] x6 | D,4 z2 | x6 | x6 | x6 | x6 | x6 | x6 | E,2 z[K:treble] B[K:bass] A,,2 | %47
 x6 | x6 | x6 | E,2 z[K:treble] B[K:bass] A,,2 | x6 | x6 | x6 | E,2 z[K:treble] B[K:bass] A,,2 | %55
 x6 | x6 | x6 | x6 | x6 | x6 |[M:9/8] x9 |[M:4/4] x8 | B,,2 [G,,G,]2 G,2 F,2 | %64
 D,E, F,2 .[E,D]2 D,G,, | A,,4 z4 | x8 | z4 [A,,A,]4 | z4 E,2 z2 | A,,4 z4 | A,,2 B,,2 z4 | x8 | %72
 z2[K:treble] C2 B,2 z2[K:bass] | z2[K:treble] z D A,4 | A,2 [G,A,]2[K:bass] z4 | %75
 B,,2 [G,,G,]2 G,2 F,2 | D,E,F,D, G,E,[F,A,][G,B,] | A,4 z4 | x8 | %79
[M:6/4][K:treble] G,6[K:bass] z6 |] %80
V:4
 x8 | x8 | x8 | x8 | x8 | x8 | x8 | x8 | x8 | x8 | x8 |[M:7/8] x2[K:bass] x5 |[M:1/4] x2 | %13
[M:3/4][K:treble] x6 | x6 | x6 | x6 | x6 | D4 z2 | x6 |[M:2/4] x4 |[M:1/4] x2 | %22
[M:3/4] z D D[C^A] [DB][E=c] | x6 | z =C C^G AB | x6 | z D DB Bd | E4 E2 | x6 |[M:2/4] x4 | %30
[M:1/4] x2 |[M:3/4] x6 | x6 | x6 | x6 | x6 |[M:5/8] G-G- G3 |[M:1/4] x2 |[M:3/4] x6 | %39
 [A,F]2 E2 A2 | x6 | x6 | x6 | x6 | x6 | x6 | [CG]4- [CGc]2 | [DF]6 | [CG]6 | [DF]4 z2 | [CG]6 | %51
 x6 | x6 | x6 | [CG]6 | [DF]6 | [CG]6 | [DF]4 z2 | x6 | x6 | x6 |[M:9/8] x9 |[M:4/4] x8 | x8 | %64
 FGAD z C[A,DF][B,EG] | A,3 G, D4 | x8 | z C z G, [DF]2 E2 | .F2 z2 z2 .[A,F]2 | [DF]2 z G, D4 | %70
 x8 | x8 | [E-A]4 E2 z2 | E4 z4 | x8 | x8 | z4 .[DB]2 z2 | x8 | x8 |[M:6/4] z2 z E3 [Fd]6 |] %80
V:5
 x8 | x8 | x8 | x8 | x8 | x8 | x8 | x8 | x8 | x8 | x8 |[M:7/8][K:bass] x7 |[M:1/4] x2 |[M:3/4] x6 | %14
 x6 | x6 | x6 | x6 | x6 | x6 |[M:2/4] x4 |[M:1/4] x2 |[M:3/4] x6 | x6 | x6 | x6 | x6 | x6 | x6 | %29
[M:2/4] x4 |[M:1/4] x2 |[M:3/4] x6 | x6 | x[K:treble] x3[K:bass] x2 | x6 | x6 |[M:5/8] x5 | %37
[M:1/4] x2 |[M:3/4] x6 | x6 | x6 | x6 | x6 | x6 | x6 | x6 | x3[K:treble] x[K:bass] x2 | x6 | x6 | %49
 x6 | x3[K:treble] x[K:bass] x2 | x6 | x6 | x6 | x3[K:treble] x[K:bass] x2 | x6 | x6 | x6 | x6 | %59
 x6 | x6 |[M:9/8] x9 |[M:4/4] x8 | x8 | x8 | x8 | x8 | z2 D,4 z2 | x8 | x8 | x8 | x8 | %72
 x2[K:treble] x5[K:bass] x | E,4[K:treble] z4 | x4[K:bass] x4 | x8 | x8 | z2 A,,2 z4 | x8 | %79
[M:6/4][K:treble] x6[K:bass] x6 |] %80
V:6
 x8 | x8 | x8 | x8 | x8 | x8 | x8 | x8 | x8 | x8 | x8 |[M:7/8] x2[K:bass] x5 |[M:1/4] x2 | %13
[M:3/4][K:treble] x6 | x6 | x6 | x6 | x6 | x6 | x6 |[M:2/4] x4 |[M:1/4] x2 |[M:3/4] x6 | x6 | x6 | %25
 x6 | x6 | x6 | x6 |[M:2/4] x4 |[M:1/4] x2 |[M:3/4] x6 | x6 | x6 | x6 | x6 |[M:5/8] x5 | %37
[M:1/4] x2 |[M:3/4] x6 | x6 | x6 | x6 | x6 | x6 | x6 | x6 | x6 | x6 | x6 | x6 | x6 | x6 | x6 | x6 | %54
 x6 | x6 | x6 | x6 | x6 | x6 | x6 |[M:9/8] x9 |[M:4/4] x8 | x8 | x8 | x8 | x8 | x8 | x8 | A,4 z4 | %70
 x8 | x8 | x8 | x8 | x8 | x8 | x8 | x8 | x8 |[M:6/4] x12 |] %80

